src/pos-icons/signal-hspa-plus.svg

<?xml version="1.0" encoding="UTF-8"?><!DOCTYPE svg PUBLIC "-//W3C//DTD SVG 1.1//EN" "http://www.w3.org/Graphics/SVG/1.1/DTD/svg11.dtd"><svg xmlns="http://www.w3.org/2000/svg" xmlns:xlink="http://www.w3.org/1999/xlink" version="1.1" id="mdi-signal-hspa-plus" width="24" height="24" viewBox="0 0 24 24"><path d="M19,8V11H22V14H19V17H16V14H13V11H16V8H19M5,10.5H8V4.5H11V19.5H8V13.5H5V19.5H2V4.5H5V10.5Z" /></svg>

<svg height="24" viewBox="0 0 24 24" width="24" xmlns="http://www.w3.org/2000/svg"><path d="m19 8v3h3v3h-3v3h-3v-3h-3v-3h3v-3zm-14 2.5h3v-6h3v15h-3v-6h-3v6h-3v-15h3z"/></svg>
